X:1
T:Glasbury, 11.11.11.11
T:Glasbury, 11.11.11.11
T:Samuel Sebastian Wesley, 1864
T:Public Domain Courtesy of the Cyber Hymnal™
C:Samuel Sebastian Wesley, 1864
Z:Public Domain
Z:Courtesy of the Cyber Hymnal™
%%score ( 1 2 ) ( 3 4 )
L:1/8
M:3/4
K:C
V:1 treble 
V:2 treble 
V:3 bass 
V:4 bass 
V:1
 [EG]2 | [EG]2 [CA]2 [DB]2 | [Ec]2 [Ff]2 [Ge]2 | [Ad]2 [Ec]2 [DB]2 | [Ec]4 [GB]2 | %5
 [GB]2 [FA]2 [Fc]2 | [DG]2 [EA]2 [FB]2 | [Gc]2 [CG]2 [Ce]2 | [Dd]4 [CG]2 | [CF]2 [CE]2 [B,D]2 | %10
 C2 [CF]2 [CE]2 | [CA]2 [CA]2 [DF]2 | [B,E]4 [EB]2 | [Ec]2 [CB]2 [B,A]2 | [CG]2 C2 [CF]2 | %15
 [CE]3 [CF] [B,D]2 | C4 |] %17
V:2
 x2 | x6 | x6 | x6 | x6 | x6 | x6 | x6 | x6 | x6 | C2 x4 | x6 | x6 | x6 | x2 C2 x2 | x6 | C4 |] %17
V:3
 [C,C]2 | [C,C]2 [C,E]2 [B,,D]2 | [A,,C]2 [A,C]2 [G,B,]2 | [F,A,]2 G,2 G,2 | [C,G,]4 [C,E,]2 | %5
 [C,F,]2 [C,F,]2 [C,A,]2 | [B,,D]2 [C,C]2 [D,B,]2 | [E,G,]2 [E,G,]2 [C,G,]2 | [G,B,]4 [E,G,]2 | %9
 [F,A,]2 G,2 [G,,F,]2 | [A,,E,]2 A,2 [G,C]2 | [F,C]2 [F,A,]2 [D,A,]2 | [E,^G,]4 [E,G,]2 | %13
 A,2 [G,C]2 [F,D]2 | [E,G,]2 [A,,A,]2 [F,,A,]2 | [G,,G,]3 [F,,A,] [G,,F,]2 | [C,E,]4 |] %17
V:4
 x2 | x6 | x6 | x2 G,2 G,2 | x6 | x6 | x6 | x6 | x6 | x2 G,2 x2 | x2 A,2 x2 | x6 | x6 | A,2 x4 | %14
 x6 | x6 | x4 |] %17

